vectors/vivaldi.com/vivaldi.svg

<?xml version="1.0" encoding="utf-8"?>
<!-- Generator: Adobe Illustrator 21.1.0, SVG Export Plug-In . SVG Version: 6.00 Build 0)  -->
<!DOCTYPE svg PUBLIC "-//W3C//DTD SVG 1.1//EN" "http://www.w3.org/Graphics/SVG/1.1/DTD/svg11.dtd">
<svg version="1.1" id="Layer_1" xmlns="http://www.w3.org/2000/svg" xmlns:xlink="http://www.w3.org/1999/xlink" x="0px" y="0px"
	 viewBox="0 0 512 512" style="enable-background:new 0 0 512 512;" xml:space="preserve">
<style type="text/css">
	.st0{fill:#EF3939;}
	.st1{fill:url(#SVGID_1_);}
	.st2{fill:#FFFFFF;}
</style>
<path class="st0" d="M256,483.3c99.7,0,155.1,0,191.4-36.1c36.2-36.1,36.2-91.3,36.2-190.7s0-154.6-36.2-190.7
	C411.1,29.8,355.7,29.8,256,29.8s-155.1,0-191.4,36.1c-36.2,36.1-36.2,91.3-36.2,190.7s0,154.6,36.2,190.7
	C100.9,483.3,156.3,483.3,256,483.3z"/>
<g>
	<linearGradient id="SVGID_1_" gradientUnits="userSpaceOnUse" x1="170.6994" y1="109.3894" x2="387.5957" y2="485.0648">
		<stop  offset="0" style="stop-color:#000000;stop-opacity:0.2"/>
		<stop  offset="0.7908" style="stop-color:#000000;stop-opacity:5.000000e-02"/>
	</linearGradient>
	<path class="st1" d="M404,172.7c-21.8-38.1-58.3-67.8-104.2-80.1c-91.1-24.3-184.7,29.5-209.1,120.2
		c-12.3,45.6-4.7,91.9,17.5,129.7c0.3,0.5,0.6,1.1,1,1.6l80.2,138.5c13.3,0.4,27.7,0.5,43.2,0.5c0,0,0.1,0,0.1,0c1.4,0,2.8,0,4.2,0
		c0,0,0.1,0,0.1,0c2.8,0,5.7,0,8.7,0c0.3,0,0.5,0,0.8,0c2.9,0,5.7,0,8.7,0c44.3,0,79.9,0,109-3.2c36.3-4,62.3-12.9,82.4-32.9
		c29.3-29.2,34.9-71,36-138.7C435.8,227.5,404.1,172.8,404,172.7z"/>
</g>
<path class="st2" d="M375.8,136.6c-66.5-66.4-174.4-66.4-241,0c-66.5,66.4-66.5,174,0,240.3c66.5,66.4,174.4,66.4,241,0
	C442.4,310.5,442.4,202.9,375.8,136.6z M365.6,214.7c-28.1,48.7-56.2,97.4-84.3,146.2c-5.2,9.1-12.8,14.5-23.2,15.3
	c-11.6,0.8-20.8-4.1-26.7-14.1c-17.8-30.5-35.4-61.2-53-91.8c-10.7-18.6-21.5-37.2-32.2-55.9c-10.8-18.8,1.4-41.7,23-42.8
	c11.4-0.6,20.2,4.7,26,14.6c7.9,13.5,15.7,27.2,23.6,40.8c5.7,9.8,11.2,19.7,17,29.3c8.4,14.1,20.8,22,37.3,23
	c23.3,1.4,45-15.5,47.8-40.2c0.2-1.8,0.3-3.7,0.4-4.6c-0.1-8-1.6-14.8-4.8-21.1c-8.7-17.4,0.6-36.9,19.5-41.1
	c15.4-3.4,31.4,7.9,33.4,23.5C370.4,202.5,369,208.8,365.6,214.7z"/>
</svg>

<?xml version="1.0" encoding="utf-8"?>
<!-- Created by UniConvertor 2.0rc5 (https://sk1project.net/) -->
<svg xmlns="http://www.w3.org/2000/svg" height="512.0px" width="512.0px" version="1.1" xmlns:xlink="http://www.w3.org/1999/xlink" id="bd9c5da4-ea8d-11ed-ae71-0242ac120007">
<defs id="defs1">
	<linearGradient y2="485.0648" spreadMethod="pad" gradientUnits="userSpaceOnUse" x2="387.5957" y1="109.3894" x1="170.6994" id="grad1">
		<stop style="stop-color:#000000;stop-opacity:0.2;" offset="0.0" />
		<stop style="stop-color:#000000;stop-opacity:0.05;" offset="0.7908" />
	</linearGradient>
</defs>
<g>
	<path style="fill:#ef3939;" d="M 256.0,483.3 C 355.7,483.3 411.1,483.3 447.4,447.2 483.6,411.1 483.6,355.9 483.6,256.5 483.6,157.1 483.6,101.9 447.4,65.8 411.1,29.8 355.7,29.8 256.0,29.8 156.3,29.8 100.9,29.8 64.6,65.9 28.4,102.0 28.4,157.2 28.4,256.6 28.4,356.0 28.4,411.2 64.6,447.3 100.9,483.3 156.3,483.3 256.0,483.3 Z" />
	<path style="fill:url(#grad1);" d="M 404.0,172.7 C 382.2,134.6 345.7,104.9 299.8,92.6 208.7,68.3 115.1,122.1 90.7,212.8 78.4,258.4 86.0,304.7 108.2,342.5 108.5,343.0 108.8,343.6 109.2,344.1 L 189.4,482.6 C 202.7,483.0 217.1,483.1 232.6,483.1 232.6,483.1 232.7,483.1 232.7,483.1 234.1,483.1 235.5,483.1 236.9,483.1 236.9,483.1 237.0,483.1 237.0,483.1 239.8,483.1 242.7,483.1 245.7,483.1 246.0,483.1 246.2,483.1 246.5,483.1 249.4,483.1 252.2,483.1 255.2,483.1 299.5,483.1 335.1,483.1 364.2,479.9 400.5,475.9 426.5,467.0 446.6,447.0 475.9,417.8 481.5,376.0 482.6,308.3 435.8,227.5 404.1,172.8 404.0,172.7 Z" />
	<path style="fill:#ffffff;" d="M 375.8,136.6 C 309.3,70.2 201.4,70.2 134.8,136.6 68.3,203.0 68.3,310.6 134.8,376.9 201.3,443.3 309.2,443.3 375.8,376.9 442.4,310.5 442.4,202.9 375.8,136.6 Z M 365.6,214.7 C 337.5,263.4 309.4,312.1 281.3,360.9 276.1,370.0 268.5,375.4 258.1,376.2 246.5,377.0 237.3,372.1 231.4,362.1 213.6,331.6 196.0,300.9 178.4,270.3 167.7,251.7 156.9,233.1 146.2,214.4 135.4,195.6 147.6,172.7 169.2,171.6 180.6,171.0 189.4,176.3 195.2,186.2 203.1,199.7 210.9,213.4 218.8,227.0 224.5,236.8 230.0,246.7 235.8,256.3 244.2,270.4 256.6,278.3 273.1,279.3 296.4,280.7 318.1,263.8 320.9,239.1 321.1,237.3 321.2,235.4 321.3,234.5 321.2,226.5 319.7,219.7 316.5,213.4 307.8,196.0 317.1,176.5 336.0,172.3 351.4,168.9 367.4,180.2 369.4,195.8 370.4,202.5 369.0,208.8 365.6,214.7 Z" />
</g>
</svg>
